X:75
T:Dusty Miller  
B:CRE2.102 (Muilleoir faoi Dheannach)
F:file ID: cre.2/075dust_m
L:1/8
M:9/8
R:slip jig
Q:160
K:G
B2d d2A B2G|E2G A2B c2A|B2d d2B BAG|EDE G2B A2G|
B2d d3 B2A|E2G A2B c2A|B2d d2B BAG|EDE G2B A2G||
B2d def g3|faf g2e dBA|BAB def g2e|dBA G2B A2G:|

%%%

